dist/img/hero-bg.svg

<svg width="2061" height="977" fill="none" xmlns="http://www.w3.org/2000/svg"><path d="M30.5 0l-20 671-8 135.482C1.145 829.46 19.414 848.84 42.432 848.84h105.812a40 40 0 0016.144-3.403l188.964-83.355a39.996 39.996 0 0116.144-3.403h298.78a40.002 40.002 0 0125.402 9.101l91.458 75.186a40 40 0 0016.142 8.015l365.303 86.932a40.09 40.09 0 009.26 1.087h433.75c5.22 0 10.39-1.022 15.22-3.008l194.54-80.026a39.98 39.98 0 0133.88 1.616l81.45 42.984c20.09 10.605 44.97 2.364 54.76-18.139l67.66-141.671a40 40 0 003.9-17.237V587.191c0-19.292-15.64-34.932-34.93-34.932-18.26 0-33.44-14.066-34.83-32.274L1952 5.5 30.5 0z" fill="#2A8086"/><path opacity=".3" d="M30.5 30l-20 671-8 135.482C1.145 859.46 19.414 878.84 42.432 878.84h105.812a40 40 0 0016.144-3.403l188.964-83.355a39.996 39.996 0 0116.144-3.403h298.78a40.002 40.002 0 0125.402 9.101l91.458 75.186a40 40 0 0016.142 8.015l365.303 86.932a40.09 40.09 0 009.26 1.087h433.75c5.22 0 10.39-1.022 15.22-3.008l193.89-79.763a39.999 39.999 0 0134.88 2.159l90.11 50.862c21.25 11.993 48.19 2.334 56.98-20.426l57.64-149.29a39.891 39.891 0 002.69-14.408V617.191c0-19.292-15.64-34.932-34.93-34.932-18.26 0-33.44-14.066-34.83-32.274L1952 35.5 30.5 30z" fill="#2A8086"/></svg>

<svg width="2061" height="977" viewBox="0 0 2061 977" fill="none" xmlns="http://www.w3.org/2000/svg">
<path d="M30.5 0L10.5 671L2.50087 806.482C1.14419 829.46 19.413 848.84 42.4313 848.84H148.243C153.802 848.84 159.3 847.681 164.387 845.437L353.351 762.082C358.437 759.838 363.936 758.679 369.495 758.679H668.275C677.541 758.679 686.519 761.896 693.677 767.78L785.135 842.966C789.836 846.831 795.357 849.572 801.277 850.981L1166.58 937.913C1169.62 938.635 1172.73 939 1175.84 939H1370.56H1609.59C1614.81 939 1619.98 937.978 1624.81 935.992L1819.35 855.966C1830.32 851.45 1842.74 852.042 1853.23 857.582L1934.68 900.566C1954.77 911.171 1979.65 902.93 1989.44 882.427L2057.1 740.756C2059.67 735.374 2061 729.484 2061 723.519V587.191C2061 567.899 2045.36 552.259 2026.07 552.259C2007.81 552.259 1992.63 538.193 1991.24 519.985L1952 5.5L30.5 0Z" fill="#2A8086"/>
<path opacity="0.3" d="M30.5 30L10.5 701L2.50087 836.482C1.14419 859.46 19.413 878.84 42.4313 878.84H148.243C153.802 878.84 159.3 877.681 164.387 875.437L353.351 792.082C358.437 789.838 363.936 788.679 369.495 788.679H668.275C677.541 788.679 686.519 791.896 693.677 797.78L785.135 872.966C789.836 876.831 795.357 879.572 801.277 880.981L1166.58 967.913C1169.62 968.635 1172.73 969 1175.84 969H1370.56H1609.59C1614.81 969 1619.98 967.978 1624.81 965.992L1818.7 886.229C1830.05 881.563 1842.9 882.359 1853.58 888.388L1943.69 939.25C1964.94 951.243 1991.88 941.584 2000.67 918.824L2058.31 769.534C2060.09 764.938 2061 760.053 2061 755.126V617.191C2061 597.899 2045.36 582.259 2026.07 582.259C2007.81 582.259 1992.63 568.193 1991.24 549.985L1952 35.5L30.5 30Z" fill="#2A8086"/>
</svg>
